coreui/free/cil-headphones.svg

<svg xmlns="http://www.w3.org/2000/svg" viewBox="0 0 512 512">
  <path fill="var(--ci-primary-color, currentColor)" d="M448,216H400V184c0-79.4-64.6-144-144-144S112,104.6,112,184v32H64a48.055,48.055,0,0,0-48,48V392a48.055,48.055,0,0,0,48,48h48a32.036,32.036,0,0,0,32-32V184a112,112,0,0,1,224,0V408a32.036,32.036,0,0,0,32,32h48a48.055,48.055,0,0,0,48-48V264A48.055,48.055,0,0,0,448,216ZM112,408H64a16.019,16.019,0,0,1-16-16V264a16.019,16.019,0,0,1,16-16h48v56h.008l.012,104Zm352-16a16.019,16.019,0,0,1-16,16H400V248h48a16.019,16.019,0,0,1,16,16Z" class="ci-primary"/>
</svg>

<svg viewBox="0 0 512 512" xmlns="http://www.w3.org/2000/svg"><path d="M448 216h-48v-32c0-79.4-64.6-144-144-144s-144 64.6-144 144v32H64v-.001c-26.5.03-47.97 21.5-48 48v128 0c.03 26.49 21.5 47.96 48 48h48v0c17.66-.02 31.98-14.34 32-32v-224 0c0-61.86 50.14-112 112-112 61.85 0 112 50.14 112 112v224 -.001c.01 17.66 14.33 31.98 32 32h48 0c26.49-.04 47.96-21.51 48-48v-128 0c-.04-26.5-21.51-47.97-48-48ZM112 408H64v0c-8.84-.02-15.99-7.17-16-16V264v0c.01-8.84 7.16-15.99 16-16h48v56h0l.01 104Zm352-16v-.001c-.02 8.83-7.17 15.98-16 16h-48v-160h48v0c8.83.01 15.98 7.16 16 16Z"/></svg>
